X: 1
T: Der Anf\"anger (F)
C: David Schonfeld
N: Composed for NOMAD 2004
M: 23/44
L: 1/8
K: F
|:  "F"f2 c'3 a | f2 c2 A2 | "Bb"B2 d2 | "C7"c2 e2 \
|   "F"f2 c'3 a | f2 c2 A2 | "C7"c2 e2 | "F"f3   z :|
|: "Gm"b3 a  ga | b2 a2 g2 | "C7"e2 g2 | "F"f2  a2 \
|  "Gm"b3 a  ga | b2 a2 g2 | "C7"c2 e2 | "F"f2  z2 :|
